src/resources/mandatory/M028.svg

<svg height="264.567" width="264.568" xmlns="http://www.w3.org/2000/svg" xmlns:xlink="http://www.w3.org/1999/xlink"><clipPath id="a"><path d="m78.889 477.735h228.233v228.231h-228.233z"/></clipPath><g clip-path="url(#a)" fill-rule="evenodd" transform="matrix(1.33333 0 0 -1.33333 -125.057 921.417)"><path d="m0 0c0 54.794-44.419 99.213-99.213 99.213s-99.213-44.419-99.213-99.214c0-54.793 44.419-99.211 99.213-99.211s99.213 44.418 99.213 99.212" fill="#005387" transform="translate(292.219 591.85)"/><g fill="#ecece7"><path d="m0 0v-18.013h-7.258v18.013a7.016 7.016 0 0 0 3.628 13.022 7.017 7.017 0 0 0 3.63-13.022m-38.983 30.111v-34.748c0-19.525 15.828-35.353 35.353-35.353 19.526 0 35.355 15.828 35.355 35.353v34.748z" transform="translate(196.633 549.509)"/><path d="m0 0c-1.422-.699-2.861-1.41-4.312-2.131-.546-1.769-1.727-3.191-3.435-3.982-4.227-1.906-8.387-3.946-12.666-5.735-1.736-.737-3.606-.653-5.289.078a351.314 351.314 0 0 0 -7.152-2.989c3.941-4.371 9.966-6.059 15.35-3.768 4.342 1.817 8.564 3.882 12.846 5.814 5.287 2.454 7.956 8.164 7.293 14.012-.877-.434-1.768-.875-2.635-1.299" transform="translate(265.307 612.884)"/><path d="m0 0c-4.118-2.09-8.284-4.086-12.413-6.154-1.611-.745-2.227-2.821-1.38-4.647.855-1.82 2.878-2.687 4.515-1.929 3.96 1.98 7.951 3.896 11.902 5.892a81.331 81.331 0 0 1 -2.624 6.838" transform="translate(268.352 624.737)"/><path d="m0 0c-4.987-2.134-7.803-7.558-7.53-13.415 2.406.973 4.722 1.942 6.969 2.919.614 1.712 1.789 3.102 3.471 3.817 4.142 1.734 8.183 3.715 12.283 5.563 1.659.765 3.497.695 5.177.049 1.43.71 2.856 1.416 4.289 2.119.823.404 1.666.82 2.503 1.234-4.211 4.084-10.112 5.467-15.059 3.193-4.038-1.818-8.026-3.777-12.103-5.479" transform="translate(235.778 621.955)"/><path d="m0 0a346.622 346.622 0 0 0 -7.152 2.989c-1.684-.73-3.553-.815-5.289-.078-4.28 1.789-8.44 3.829-12.667 5.735-1.708.791-2.887 2.213-3.436 3.982-1.449.721-2.889 1.432-4.31 2.131-.868.424-1.758.865-2.635 1.299-.663-5.848 2.006-11.558 7.293-14.012 4.283-1.932 8.504-3.997 12.845-5.814 5.384-2.291 11.41-.603 15.351 3.768" transform="translate(153.554 598.125)"/><path d="m0 0a612.387 612.387 0 0 1 8.512 3.048c-4.69 7.496-13.017 12.496-22.494 12.496-9.476 0-17.803-5-22.495-12.495a620.69 620.69 0 0 1 8.513-3.049c3.262 4.146 8.31 6.824 13.982 6.824s10.721-2.678 13.982-6.824" transform="translate(206.985 600.619)"/><path d="m0 0a26.51 26.51 0 0 1 -.226-3.4v-7.637h8.723v7.637c0 .119.016.234.018.353-3 1.052-5.826 2.062-8.515 3.047" transform="translate(166.707 593.042)"/><path d="m0 0c.001-.119.016-.234.016-.353v-7.637h8.723v7.637c0 1.153-.082 2.284-.226 3.399a630.862 630.862 0 0 0 -8.513-3.046" transform="translate(210.785 589.995)"/><path d="m0 0c.847 1.826.232 3.901-1.38 4.646-4.127 2.068-8.291 4.064-12.408 6.153a81.352 81.352 0 0 1 -2.624-6.839c3.949-1.995 7.94-3.91 11.897-5.89 1.637-.758 3.66.11 4.515 1.93" transform="translate(131.447 613.937)"/><path d="m0 0c1.68.646 3.517.717 5.177-.049 4.099-1.848 8.14-3.829 12.283-5.562 1.682-.715 2.855-2.106 3.471-3.818a298.07 298.07 0 0 1 6.968-2.919c.274 5.858-2.543 11.282-7.529 13.415-4.077 1.702-8.065 3.661-12.103 5.48-4.947 2.273-10.848.89-15.059-3.194.837-.414 1.68-.83 2.503-1.234a897.35 897.35 0 0 0 4.289-2.119" transform="translate(129.858 620.888)"/><path d="m0 0c.612-1.894 2.54-3.065 4.24-2.447 10.804 3.749 21.535 7.707 31.994 12.285 1.662.709 2.36 2.778 1.556 4.624-.807 1.84-2.784 2.771-4.415 2.08-10.307-4.514-20.853-8.404-31.453-12.084-1.664-.605-2.547-2.527-1.922-4.458" transform="translate(203.703 593.569)"/><path d="m0 0c.624 1.931-.259 3.853-1.923 4.458-10.599 3.68-21.145 7.57-31.452 12.084-1.632.691-3.608-.24-4.414-2.08-.806-1.846-.107-3.915 1.555-4.624 10.459-4.578 21.189-8.536 31.994-12.285 1.7-.618 3.628.553 4.24 2.447" transform="translate(182.304 593.569)"/></g></g></svg>

<?xml version="1.0" encoding="UTF-8" standalone="no"?>
<svg
   height="264.56601"
   width="264.56735"
   version="1.1"
   id="svg15"
   xmlns="http://www.w3.org/2000/svg"
   xmlns:svg="http://www.w3.org/2000/svg">
  <defs
     id="defs15" />
  <clipPath
     id="a">
    <path
       d="M 78.889,477.735 H 307.122 V 705.966 H 78.889 Z"
       id="path1" />
  </clipPath>
  <g
     clip-path="url(#a)"
     fill-rule="evenodd"
     transform="matrix(1.33333,0,0,-1.33333,-125.05702,921.41503)"
     id="g15">
    <path
       d="m 0,0 c 0,54.794 -44.419,99.213 -99.213,99.213 -54.794,0 -99.213,-44.419 -99.213,-99.214 0,-54.793 44.419,-99.211 99.213,-99.211 C -44.419,-99.212 0,-54.794 0,0"
       fill="#005387"
       transform="translate(292.219,591.85)"
       id="path2" />
    <g
       fill="#ecece7"
       id="g14">
      <path
         d="M 0,0 V -18.013 H -7.258 V 0 A 7.016,7.016 0 0 0 -3.63,13.022 7.017,7.017 0 0 0 0,0 M -38.983,30.111 V -4.637 c 0,-19.525 15.828,-35.353 35.353,-35.353 19.526,0 35.355,15.828 35.355,35.353 v 34.748 z"
         transform="translate(196.633,549.509)"
         id="path3" />
      <path
         d="m 0,0 c -1.422,-0.699 -2.861,-1.41 -4.312,-2.131 -0.546,-1.769 -1.727,-3.191 -3.435,-3.982 -4.227,-1.906 -8.387,-3.946 -12.666,-5.735 -1.736,-0.737 -3.606,-0.653 -5.289,0.078 a 351.314,351.314 0 0 0 -7.152,-2.989 c 3.941,-4.371 9.966,-6.059 15.35,-3.768 4.342,1.817 8.564,3.882 12.846,5.814 5.287,2.454 7.956,8.164 7.293,14.012 C 1.758,0.865 0.867,0.424 0,0"
         transform="translate(265.307,612.884)"
         id="path4" />
      <path
         d="m 0,0 c -4.118,-2.09 -8.284,-4.086 -12.413,-6.154 -1.611,-0.745 -2.227,-2.821 -1.38,-4.647 0.855,-1.82 2.878,-2.687 4.515,-1.929 3.96,1.98 7.951,3.896 11.902,5.892 A 81.331,81.331 0 0 1 0,0"
         transform="translate(268.352,624.737)"
         id="path5" />
      <path
         d="m 0,0 c -4.987,-2.134 -7.803,-7.558 -7.53,-13.415 2.406,0.973 4.722,1.942 6.969,2.919 0.614,1.712 1.789,3.102 3.471,3.817 4.142,1.734 8.183,3.715 12.283,5.563 1.659,0.765 3.497,0.695 5.177,0.049 1.43,0.71 2.856,1.416 4.289,2.119 0.823,0.404 1.666,0.82 2.503,1.234 C 22.951,6.37 17.05,7.753 12.103,5.479 8.065,3.661 4.077,1.702 0,0"
         transform="translate(235.778,621.955)"
         id="path6" />
      <path
         d="m 0,0 a 346.622,346.622 0 0 0 -7.152,2.989 c -1.684,-0.73 -3.553,-0.815 -5.289,-0.078 -4.28,1.789 -8.44,3.829 -12.667,5.735 -1.708,0.791 -2.887,2.213 -3.436,3.982 -1.449,0.721 -2.889,1.432 -4.31,2.131 -0.868,0.424 -1.758,0.865 -2.635,1.299 -0.663,-5.848 2.006,-11.558 7.293,-14.012 4.283,-1.932 8.504,-3.997 12.845,-5.814 C -9.967,-6.059 -3.941,-4.371 0,0"
         transform="translate(153.554,598.125)"
         id="path7" />
      <path
         d="m 0,0 a 612.387,612.387 0 0 1 8.512,3.048 c -4.69,7.496 -13.017,12.496 -22.494,12.496 -9.476,0 -17.803,-5 -22.495,-12.495 A 620.69,620.69 0 0 1 -27.964,0 c 3.262,4.146 8.31,6.824 13.982,6.824 C -8.31,6.824 -3.261,4.146 0,0"
         transform="translate(206.985,600.619)"
         id="path8" />
      <path
         d="m 0,0 a 26.51,26.51 0 0 1 -0.226,-3.4 v -7.637 H 8.497 V -3.4 c 0,0.119 0.016,0.234 0.018,0.353 C 5.515,-1.995 2.689,-0.985 0,0"
         transform="translate(166.707,593.042)"
         id="path9" />
      <path
         d="M 0,0 C 0.001,-0.119 0.016,-0.234 0.016,-0.353 V -7.99 h 8.723 v 7.637 C 8.739,0.8 8.657,1.931 8.513,3.046 A 630.862,630.862 0 0 0 0,0"
         transform="translate(210.785,589.995)"
         id="path10" />
      <path
         d="M 0,0 C 0.847,1.826 0.232,3.901 -1.38,4.646 -5.507,6.714 -9.671,8.71 -13.788,10.799 A 81.352,81.352 0 0 1 -16.412,3.96 C -12.463,1.965 -8.472,0.05 -4.515,-1.93 -2.878,-2.688 -0.855,-1.82 0,0"
         transform="translate(131.447,613.937)"
         id="path11" />
      <path
         d="m 0,0 c 1.68,0.646 3.517,0.717 5.177,-0.049 4.099,-1.848 8.14,-3.829 12.283,-5.562 1.682,-0.715 2.855,-2.106 3.471,-3.818 a 298.07,298.07 0 0 1 6.968,-2.919 C 28.173,-6.49 25.356,-1.066 20.37,1.067 16.293,2.769 12.305,4.728 8.267,6.547 3.32,8.82 -2.581,7.437 -6.792,3.353 -5.955,2.939 -5.112,2.523 -4.289,2.119 A 897.35,897.35 0 0 0 0,0"
         transform="translate(129.858,620.888)"
         id="path12" />
      <path
         d="m 0,0 c 0.612,-1.894 2.54,-3.065 4.24,-2.447 10.804,3.749 21.535,7.707 31.994,12.285 1.662,0.709 2.36,2.778 1.556,4.624 -0.807,1.84 -2.784,2.771 -4.415,2.08 C 23.068,12.028 12.522,8.138 1.922,4.458 0.258,3.853 -0.625,1.931 0,0"
         transform="translate(203.703,593.569)"
         id="path13" />
      <path
         d="m 0,0 c 0.624,1.931 -0.259,3.853 -1.923,4.458 -10.599,3.68 -21.145,7.57 -31.452,12.084 -1.632,0.691 -3.608,-0.24 -4.414,-2.08 -0.806,-1.846 -0.107,-3.915 1.555,-4.624 C -25.775,5.26 -15.045,1.302 -4.24,-2.447 -2.54,-3.065 -0.612,-1.894 0,0"
         transform="translate(182.304,593.569)"
         id="path14" />
    </g>
  </g>
</svg>
